icons/neo4j.svg

<!--
  - The MIT License (MIT)
  -
  - Copyright (c) 2015-2024 Elior "Mallowigi" Boukhobza
  -
  - Permission is hereby granted, free of charge, to any person obtaining a copy
  - of this software and associated documentation files (the "Software"), to deal
  - in the Software without restriction, including without limitation the rights
  - to use, copy, modify, merge, publish, distribute, sublicense, and/or sell
  - copies of the Software, and to permit persons to whom the Software is
  - furnished to do so, subject to the following conditions:
  -
  - The above copyright notice and this permission notice shall be included in all
  - copies or substantial portions of the Software.
  -
  - THE SOFTWARE IS PROVIDED "AS IS", WITHOUT WARRANTY OF ANY KIND, EXPRESS OR
  - IMPLIED, INCLUDING BUT NOT LIMITED TO THE WARRANTIES OF MERCHANTABILITY,
  - FITNESS FOR A PARTICULAR PURPOSE AND NONINFRINGEMENT. IN NO EVENT SHALL THE
  - AUTHORS OR COPYRIGHT HOLDERS BE LIABLE FOR ANY CLAIM, DAMAGES OR OTHER
  - LIABILITY, WHETHER IN AN ACTION OF CONTRACT, TORT OR OTHERWISE, ARISING FROM,
  - OUT OF OR IN CONNECTION WITH THE SOFTWARE OR THE USE OR OTHER DEALINGS IN THE
  - SOFTWARE.
  -
  -->

<svg version="1.1" xmlns="http://www.w3.org/2000/svg" viewBox="0 0 459 512" width="16px" height="16px">
  <path fill="#64B5F6" data-iconColor="Neo4j"
        d="M101.4251556,161.342804c0-13.2830658-14.4784546-21.6300507-25.9986649-14.9885254c-11.5202179,6.6415405-11.5202141,23.3355255,0,29.9770508S101.4251556,174.6258698,101.4251556,161.342804z M104.2852402,208.8032532c0-13.2830658-14.4784546-21.6300507-25.9986649-14.9885254c-11.5202179,6.6415405-11.5202103,23.3355255,0,29.9770508S104.2852402,222.086319,104.2852402,208.8032532z M218.6708832,50.8975182c0-13.2830658-14.4784546-21.6300526-25.9986725-14.9885216s-11.5202026,23.3355141,0.0000153,29.9770432C204.1924286,72.527565,218.6708832,64.1805878,218.6708832,50.8975182z M264.1050415,66.8592606c0-13.2830696-14.4784546-21.6300583-25.9986725-14.9885254c-11.5202026,6.6415367-11.5202026,23.3355103,0.0000153,29.9770432C249.6265869,88.4893036,264.1050415,80.1423264,264.1050415,66.8592606z M114.8886414,259.1248474c0-13.2830811-14.478447-21.6300659-25.9986649-14.9885254c-11.5202179,6.6415253-11.5202103,23.3355103,0.0000076,29.9770508C100.4101944,280.7548828,114.8886414,272.4078979,114.8886414,259.1248474z M138.6482391,304.2223206c0-13.2830505-14.4784546-21.6300354-25.9986725-14.9884949c-11.5202179,6.64151-11.5202103,23.3355103,0.0000076,29.9770203C124.1697845,325.8523865,138.6482391,317.5054016,138.6482391,304.2223206z M323.9203796,367.2868652c0-13.2830505-14.4784241-21.6300354-25.9986572-14.9884949c-11.5202026,6.64151-11.5202026,23.3355103,0,29.9770203C309.4419556,388.9169312,323.9203796,380.5699463,323.9203796,367.2868652z M355.3656311,330.0658875c0-13.2830505-14.4784546-21.6300354-25.9986877-14.9884949c-11.5202026,6.64151-11.5202026,23.3355103,0,29.9770203C340.8871765,351.6959534,355.3656311,343.3489685,355.3656311,330.0658875z M273.9066162,447.6331482c91.8938599-22.7735901,167.0243225-103.3045044,169.7027893-209.4750519c37.6954041-66.5650177,0.7892151-153.0506592-74.4309387-171.2645874C312.2604675,16.7545147,230.7083282-4.0398803,153.4364777,21.1792183C134.0138397,0.1550132,101.2421265-7.47224,73.1649323,8.7146292C41.6592255,26.8779907,33.2004318,65.1457443,47.778759,94.1118317C-27.1304703,188.0953979-13.9490528,332.553009,87.2761536,408.796936C81.9724731,522.0047607,235.0977631,552.4200439,273.9066162,447.6331482z M161.168457,31.4260483c65.1693268-19.819849,133.1513672-5.388176,184.6532288,32.1827202C262.114502,59.9883347,200.0897217,145.423233,232.9123383,225.166153c33.4402618,81.2436066,141.0527802,97.5952911,197.2452545,32.1033478c-10.2729492,88.3050842-74.3753662,154.9010315-152.6705933,176.9292908c18.4413757-124.0523071-155.6600037-161.8092041-188.1890259-39.1574707c-89.6915665-72.1559448-101.223671-202.8563232-34.5949516-290.074585C108.1925583,167.5092468,200.4872589,100.3858261,161.168457,31.4260483z"/>
</svg>

<svg xmlns="http://www.w3.org/2000/svg" viewBox="0 0 459 512"><path fill="#64b5f6" d="M101.425 161.343c0-13.283-14.478-21.63-25.999-14.989-11.52 6.642-11.52 23.336 0 29.977s26-1.705 26-14.988m2.86 47.46c0-13.283-14.478-21.63-25.998-14.988s-11.52 23.335 0 29.977 25.998-1.706 25.998-14.989M218.671 50.898c0-13.284-14.479-21.63-25.999-14.989s-11.52 23.336 0 29.977 25.999-1.705 25.999-14.988m45.434 15.961c0-13.283-14.478-21.63-25.999-14.988s-11.52 23.335 0 29.977 25.999-1.706 25.999-14.989M114.889 259.125c0-13.283-14.479-21.63-25.999-14.989-11.52 6.642-11.52 23.336 0 29.977s25.999-1.705 25.999-14.988m23.76 45.097c0-13.283-14.48-21.63-26-14.988s-11.52 23.335 0 29.977 26-1.706 26-14.989m185.271 63.065c0-13.283-14.478-21.63-25.998-14.989-11.52 6.642-11.52 23.336 0 29.977s25.998-1.705 25.998-14.988m31.446-37.221c0-13.283-14.479-21.63-26-14.989-11.52 6.642-11.52 23.336 0 29.977 11.521 6.642 26-1.705 26-14.988m-81.46 117.567C365.8 424.86 440.932 344.33 443.61 238.158c37.696-66.565.79-153.05-74.43-171.264-56.919-50.14-138.47-70.934-215.743-45.715C134.014.155 101.242-7.472 73.165 8.715 41.659 26.878 33.2 65.145 47.779 94.112c-74.91 93.983-61.728 238.441 39.497 314.685-5.304 113.208 147.822 143.623 186.63 38.836M161.169 31.426c65.17-19.82 133.152-5.388 184.654 32.183-83.707-3.62-145.732 81.814-112.91 161.557 33.44 81.244 141.053 97.595 197.246 32.104-10.273 88.305-74.376 154.9-152.671 176.929 18.441-124.053-155.66-161.81-188.189-39.158C-.394 322.885-11.926 192.185 54.703 104.967c53.49 62.542 145.784-4.581 106.465-73.541" data-iconColor="Neo4j"/></svg>
